X:1
T:Title
%%score 1 2 3
L:1/8
Q:1/4=100
M:6/8
K:G
V:1 treble nm="Grand Piano"
V:2 bass nm="Grand Piano, Melody"
V:3 bass nm="Grand Piano"
V:1
 B2 B dBG | B2 B BAB | d2 B G2 G | AGA B3 | B2 B dBG | B2 B BAB | d2 B G2 G | AGA B3 | d2 B A2 G | %9
 A2 B c d2 | B2 A G2 G | GAB d3 | d2 e d2 d | B2 B BAB | d2 B G2 G | AGA B3 |] %16
V:2
 B,2 B, A,G,E, | G,2 G, E,D,B,, | D,E,G, B,2 B, | A,G,A, G,3 | B,2 B, A,G,E, | G,2 G, E,D,B,, | %6
 D,E,G, B,2 B, | A,G,A, G,3 | G,2 B,[K:treble] D2 E | D2 B, A, G,2 | D2 C[K:bass] B,A,B, | %11
 E,F,G, D,3 | D2 C B,A,B, | G,2 G, E,D,B,, | D,E,G, B,2 B, | A,G,A, G,3 |] %16
V:3
 E,2 E, D,E,G, | E,2 E, E,D,B,, | D,E,G, E,2 E, | D,2 D, [G,,G,]3 | E,2 E, D,E,G, | %5
 E,2 E, E,D,B,, | D,E,G, E,2 E, | D,2 D, [G,,G,]3 | G,2 E, D,2 E, | D,2 D, E, G,2 | G,2 F, E,2 E, | %11
 E,F,G, D,3 | G,2 G, G,2 G, | E,2 E, E,D,B,, | D,E,G, E,2 E, | D,2 D, [G,,G,]3 |] %16

